img/check.svg

<svg width="14" height="14" viewBox="0 0 14 14" fill="none" xmlns="http://www.w3.org/2000/svg">
<path d="M5.36456 14C5.7833 14 6.10722 13.8227 6.33634 13.4761L13.763 1.67645C13.9289 1.41048 14 1.1848 14 0.967185C14 0.394934 13.605 0 13.0361 0C12.649 0 12.412 0.145078 12.1749 0.523892L5.32506 11.6062L1.80926 7.00403C1.57223 6.68969 1.32731 6.56074 0.979684 6.56074C0.410835 6.56074 0 6.97179 0 7.53598C0 7.78584 0.0869075 8.02763 0.292325 8.27749L4.38488 13.4842C4.6614 13.8388 4.95372 14 5.36456 14Z" fill="#17BB28"/>
</svg>

<svg width="14" height="14" fill="none" xmlns="http://www.w3.org/2000/svg"><path d="M5.365 14c.418 0 .742-.177.971-.524l7.427-11.8c.166-.266.237-.491.237-.709C14 .395 13.605 0 13.036 0c-.387 0-.624.145-.861.524l-6.85 11.082L1.81 7.004c-.237-.314-.482-.443-.83-.443-.568 0-.979.41-.979.975 0 .25.087.492.292.741l4.093 5.207c.276.355.569.516.98.516z" fill="#17BB28"/></svg>
